raw-svg/twitch.svg

<svg fill="none" height="24" viewBox="0 0 24 24" width="24" xmlns="http://www.w3.org/2000/svg"><path d="m11.706 7.144h1.168v3.424h-1.168m3.21-3.424h1.168v3.424h-1.168m-7.00001-6.568-2.91599 2.856v10.288h3.49592v2.856l2.92418-2.856h2.3279l5.252-5.144v-8m-1.168 7.432-2.3279 2.28h-2.3361l-2.042 2v-2h-2.63008v-8.568h9.33608z" fill="#000"/></svg>

<svg width="24" height="24" viewBox="0 0 24 24" fill="none" xmlns="http://www.w3.org/2000/svg">
<path d="M11.706 7.144H12.874V10.568H11.706M14.916 7.144H16.084V10.568H14.916M7.91599 4L5 6.856V17.144H8.49592V20L11.4201 17.144H13.748L19 12V4M17.832 11.432L15.5041 13.712H13.168L11.126 15.712V13.712H8.49592V5.144H17.832V11.432Z" fill="black"/>
</svg>
